src/img/twitter.svg

<svg height="28" viewBox="0 0 28 28" width="28" xmlns="http://www.w3.org/2000/svg"><path d="m14 0c7.7319865 0 14 6.2680135 14 14s-6.2680135 14-14 14-14-6.2680135-14-14 6.2680135-14 14-14zm2.8882326 8.90909091c-1.5138709 0-2.7406554 1.29469619-2.7406554 2.89135029 0 .2266753.0227473.4475595.0698106.6585164-2.2778658-.1207831-4.29766762-1.270705-5.65073874-3.02123354-.23610111.42853203-.37101603.92490114-.37101603 1.45436164 0 1.0026657.48396805 1.8878573 1.21972499 2.4073904-.44945493-.0148911-.87224063-.1464289-1.24247227-.3615222v.0355731c0 1.4014155.94440443 2.5703649 2.20021135 2.8350951-.2306104.0678371-.47220226.1017557-.72320675.1017557-.17648754 0-.34905313-.0173729-.51534361-.0512915.34826874 1.1482673 1.36091496 1.9854766 2.56103026 2.0078132-.9389137.7759905-2.120988 1.2376138-3.40503289 1.2376138-.22119771 0-.44004226-.0124092-.65418047-.0397095 1.21344987.8198363 2.65437256 1.2988326 4.20275656 1.2988326 5.0436216 0 7.7999648-4.4061035 7.7999648-8.2273187 0-.1257469-.0015688-.2506664-.0070595-.3739315.5357377-.4078499 1.0016648-.9174556 1.3679745-1.4973802-.4918119.2299843-1.0204902.3855133-1.5742688.455005.5663289-.3573858 1.0008804-.92407387 1.2048216-1.59913592-.530247.33174005-1.1161857.57165181-1.7413438.70153507-.4988714-.56255171-1.211881-.91331924-2.0009764-.91331924z" fill-rule="evenodd"/></svg>

<?xml version="1.0" encoding="UTF-8"?>
<svg width="28px" height="28px" viewBox="0 0 28 28" version="1.1" xmlns="http://www.w3.org/2000/svg" xmlns:xlink="http://www.w3.org/1999/xlink">
    <!-- Generator: Sketch 62 (91390) - https://sketch.com -->
    <title>Combined Shape</title>
    <desc>Created with Sketch.</desc>
    <g id="Social-Icons" stroke="none" stroke-width="1" fill="none" fill-rule="evenodd">
        <g id="social-icons" transform="translate(-100.000000, -40.000000)" fill="#000000">
            <g id="twitter" transform="translate(100.000000, 40.000000)">
                <path d="M14,0 C21.7319865,0 28,6.2680135 28,14 C28,21.7319865 21.7319865,28 14,28 C6.2680135,28 0,21.7319865 0,14 C0,6.2680135 6.2680135,0 14,0 Z M16.8882326,8.90909091 C15.3743617,8.90909091 14.1475772,10.2037871 14.1475772,11.8004412 C14.1475772,12.0271165 14.1703245,12.2480007 14.2173878,12.4589576 C11.939522,12.3381745 9.91972018,11.1882526 8.56664906,9.43772406 C8.33054795,9.86625609 8.19563303,10.3626252 8.19563303,10.8920857 C8.19563303,11.8947514 8.67960108,12.779943 9.41535802,13.2994761 C8.96590309,13.284585 8.54311739,13.1530472 8.17288575,12.9379539 L8.17288575,12.973527 C8.17288575,14.3749425 9.11729018,15.5438919 10.3730971,15.8086221 C10.1424867,15.8764592 9.90089484,15.9103778 9.64989035,15.9103778 C9.47340281,15.9103778 9.30083722,15.8930049 9.13454674,15.8590863 C9.48281548,17.0073536 10.4954617,17.8445629 11.695577,17.8668995 C10.7566633,18.64289 9.574589,19.1045133 8.29054411,19.1045133 C8.0693464,19.1045133 7.85050185,19.0921041 7.63636364,19.0648038 C8.84981351,19.8846401 10.2907362,20.3636364 11.8391202,20.3636364 C16.8827418,20.3636364 19.639085,15.9575329 19.639085,12.1363177 C19.639085,12.0105708 19.6375162,11.8856513 19.6320255,11.7623862 C20.1677632,11.3545363 20.6336903,10.8449306 21,10.265006 C20.5081881,10.4949903 19.9795098,10.6505193 19.4257312,10.720011 C19.9920601,10.3626252 20.4266116,9.79593713 20.6305528,9.12087508 C20.1003058,9.45261513 19.5143671,9.69252689 18.889209,9.82241015 C18.3903376,9.25985844 17.677328,8.90909091 16.8882326,8.90909091 Z" id="Combined-Shape"></path>
            </g>
        </g>
    </g>
</svg>
